images/html-academy-logo.svg

<svg width="115" height="34" viewBox="0 0 115 34" fill="none" xmlns="http://www.w3.org/2000/svg">
<path d="M0 13.7232V16.3232H2.5V13.7232H0Z" fill="black"/>
<path d="M11.6 5.32324C10 5.32324 8.8 6.02324 8 7.02324H7.9V0.823242H5.9V16.3232H7.9V11.0232C7.9 8.92324 9.2 7.42324 11.2 7.42324C13 7.42324 14.1 8.82324 14.1 10.6232V16.3232H16.1V10.2232C16.2 7.22324 14.3 5.32324 11.6 5.32324Z" fill="black"/>
<path d="M26.6 5.62324H21.8V1.92324H19.8V5.72324H17.9V7.72324H19.8V13.7232C19.8 15.4232 20.8 16.4232 22.5 16.4232H26.6V14.4232H22.9C22.2 14.4232 21.8 14.0232 21.8 13.3232V7.62324H26.6V5.62324Z" fill="black"/>
<path d="M41.1 5.42324C39.5 5.42324 38.2 6.22324 37.6 7.52324H37.5C36.9 6.32324 35.7 5.42324 34.1 5.42324C32.7 5.42324 31.6 6.22324 31 7.22324H30.9V5.62324H29V16.2232H31V10.8232C31 8.82324 32 7.32324 33.6 7.32324C35.1 7.32324 36 8.32324 36 9.92324V16.2232H38V10.6232C38 8.22324 39.4 7.32324 40.6 7.32324C42.1 7.32324 43 8.32324 43 9.92324V16.2232H45V9.72324C45.1 7.22324 43.6 5.42324 41.1 5.42324Z" fill="black"/>
<path d="M47.8 13.5232C47.8 15.2232 48.8 16.2232 50.6 16.2232H52.6V14.2232H50.9C50.2 14.2232 49.8 13.8232 49.8 13.1232V0.823242H47.8V13.5232Z" fill="black"/>
<path d="M28.9 20.5232C28 19.4232 26.7 18.7232 25 18.7232C21.9 18.7232 19.6 21.0232 19.6 24.3232C19.6 27.6232 21.9 29.9232 25 29.9232C26.8 29.9232 28 29.1232 28.8 28.0232H28.9V29.6232H30.9V19.0232H28.9V20.5232ZM25.3 27.9232C23.1 27.9232 21.7 26.3232 21.7 24.3232C21.7 22.3232 23.1 20.7232 25.3 20.7232C27.5 20.7232 28.9 22.3232 28.9 24.3232C28.9 26.2232 27.5 27.9232 25.3 27.9232Z" fill="black"/>
<path d="M44.2 22.8232C43.7 20.4232 41.6 18.7232 38.8 18.7232C35.4 18.7232 33.2 21.2232 33.2 24.3232C33.2 27.4232 35.4 29.9232 38.8 29.9232C41.6 29.9232 43.7 28.1232 44.2 25.7232H42.1C41.7 27.0232 40.4 28.0232 38.8 28.0232C36.6 28.0232 35.2 26.4232 35.2 24.4232C35.2 22.4232 36.6 20.8232 38.8 20.8232C40.4 20.8232 41.6 21.8232 42.1 23.0232H44.2V22.8232Z" fill="black"/>
<path d="M55.1 20.5232C54.2 19.4232 52.9 18.7232 51.2 18.7232C48.1 18.7232 45.8 21.0232 45.8 24.3232C45.8 27.6232 48.1 29.9232 51.2 29.9232C53 29.9232 54.2 29.1232 55 28.0232H55.1V29.6232H57.1V19.0232H55.1V20.5232ZM51.5 27.9232C49.3 27.9232 47.9 26.3232 47.9 24.3232C47.9 22.3232 49.3 20.7232 51.5 20.7232C53.7 20.7232 55.1 22.3232 55.1 24.3232C55.1 26.2232 53.6 27.9232 51.5 27.9232Z" fill="black"/>
<path d="M68.7 20.6232C67.8 19.5232 66.5 18.7232 64.8 18.7232C61.7 18.7232 59.4 21.0232 59.4 24.3232C59.4 27.6232 61.6 29.9232 64.8 29.9232C66.5 29.9232 67.8 29.1232 68.6 28.1232H68.7V29.6232H70.7V14.2232H68.7V20.6232ZM65.1 27.9232C62.9 27.9232 61.5 26.3232 61.5 24.3232C61.5 22.3232 62.9 20.7232 65.1 20.7232C67.3 20.7232 68.7 22.3232 68.7 24.3232C68.6 26.3232 67.2 27.9232 65.1 27.9232Z" fill="black"/>
<path d="M78.3 18.7232C75 18.7232 72.8 21.2232 72.8 24.3232C72.8 27.3232 74.9 29.9232 78.3 29.9232C80.8 29.9232 82.8 28.6232 83.5 26.3232H81.4C80.9 27.3232 79.8 27.9232 78.4 27.9232C76.5 27.9232 75.1 26.6232 75 25.0232H83.8C84 21.4232 81.8 18.7232 78.3 18.7232ZM78.3 20.6232C80 20.6232 81.3 21.6232 81.6 23.2232H75.1C75.4 21.7232 76.6 20.6232 78.3 20.6232Z" fill="black"/>
<path d="M98.2 18.7232C96.6 18.7232 95.3 19.5232 94.6 20.7232H94.5C93.9 19.5232 92.7 18.7232 91.1 18.7232C89.7 18.7232 88.6 19.4232 88 20.5232V19.0232H86.1V29.6232H88.1V24.2232C88.1 22.2232 89.1 20.8232 90.7 20.7232C92.2 20.7232 93.1 21.7232 93.1 23.3232V29.6232H95.1V24.0232C95.1 21.6232 96.5 20.7232 97.7 20.7232C99.2 20.7232 100.1 21.7232 100.1 23.3232V29.6232H102.1V23.1232C102.2 20.5232 100.7 18.7232 98.2 18.7232Z" fill="black"/>
<path d="M109.4 27.8232L105.8 18.9232H103.6L108.4 30.5232C108.1 31.4232 107.7 31.7232 106.7 31.7232H104.2V33.7232H106.7C108.5 33.7232 109.5 32.9232 110.2 31.1232L114.9 18.9232H112.8L109.4 27.8232Z" fill="black"/>
</svg>

<svg xmlns="http://www.w3.org/2000/svg" width="115" height="34" fill="none"><path fill="#000" d="M0 13.723v2.6h2.5v-2.6H0Zm11.6-8.4c-1.6 0-2.8.7-3.6 1.7h-.1v-6.2h-2v15.5h2v-5.3c0-2.1 1.3-3.6 3.3-3.6 1.8 0 2.9 1.4 2.9 3.2v5.7h2v-6.1c.1-3-1.8-4.9-4.5-4.9Zm15 .3h-4.8v-3.7h-2v3.8h-1.9v2h1.9v6c0 1.7 1 2.7 2.7 2.7h4.1v-2h-3.7c-.7 0-1.1-.4-1.1-1.1v-5.7h4.8v-2Zm14.5-.2c-1.6 0-2.9.8-3.5 2.1h-.1c-.6-1.2-1.8-2.1-3.4-2.1-1.4 0-2.5.8-3.1 1.8h-.1v-1.6H29v10.6h2v-5.4c0-2 1-3.5 2.6-3.5 1.5 0 2.4 1 2.4 2.6v6.3h2v-5.6c0-2.4 1.4-3.3 2.6-3.3 1.5 0 2.4 1 2.4 2.6v6.3h2v-6.5c.1-2.5-1.4-4.3-3.9-4.3Zm6.7 8.1c0 1.7 1 2.7 2.8 2.7h2v-2h-1.7c-.7 0-1.1-.4-1.1-1.1V.823h-2v12.7Zm-18.9 7c-.9-1.1-2.2-1.8-3.9-1.8-3.1 0-5.4 2.3-5.4 5.6s2.3 5.6 5.4 5.6c1.8 0 3-.8 3.8-1.9h.1v1.6h2v-10.6h-2v1.5Zm-3.6 7.4c-2.2 0-3.6-1.6-3.6-3.6s1.4-3.6 3.6-3.6 3.6 1.6 3.6 3.6c0 1.9-1.4 3.6-3.6 3.6Zm18.9-5.1c-.5-2.4-2.6-4.1-5.4-4.1-3.4 0-5.6 2.5-5.6 5.6 0 3.1 2.2 5.6 5.6 5.6 2.8 0 4.9-1.8 5.4-4.2h-2.1c-.4 1.3-1.7 2.3-3.3 2.3-2.2 0-3.6-1.6-3.6-3.6s1.4-3.6 3.6-3.6c1.6 0 2.8 1 3.3 2.2h2.1v-.2Zm10.9-2.3c-.9-1.1-2.2-1.8-3.9-1.8-3.1 0-5.4 2.3-5.4 5.6s2.3 5.6 5.4 5.6c1.8 0 3-.8 3.8-1.9h.1v1.6h2v-10.6h-2v1.5Zm-3.6 7.4c-2.2 0-3.6-1.6-3.6-3.6s1.4-3.6 3.6-3.6 3.6 1.6 3.6 3.6c0 1.9-1.5 3.6-3.6 3.6Zm17.2-7.3c-.9-1.1-2.2-1.9-3.9-1.9-3.1 0-5.4 2.3-5.4 5.6s2.2 5.6 5.4 5.6c1.7 0 3-.8 3.8-1.8h.1v1.5h2v-15.4h-2v6.4Zm-3.6 7.3c-2.2 0-3.6-1.6-3.6-3.6s1.4-3.6 3.6-3.6 3.6 1.6 3.6 3.6c-.1 2-1.5 3.6-3.6 3.6Zm13.2-9.2c-3.3 0-5.5 2.5-5.5 5.6 0 3 2.1 5.6 5.5 5.6 2.5 0 4.5-1.3 5.2-3.6h-2.1c-.5 1-1.6 1.6-3 1.6-1.9 0-3.3-1.3-3.4-2.9h8.8c.2-3.6-2-6.3-5.5-6.3Zm0 1.9c1.7 0 3 1 3.3 2.6h-6.5c.3-1.5 1.5-2.6 3.2-2.6Zm19.9-1.9c-1.6 0-2.9.8-3.6 2h-.1c-.6-1.2-1.8-2-3.4-2-1.4 0-2.5.7-3.1 1.8v-1.5h-1.9v10.6h2v-5.4c0-2 1-3.4 2.6-3.5 1.5 0 2.4 1 2.4 2.6v6.3h2v-5.6c0-2.4 1.4-3.3 2.6-3.3 1.5 0 2.4 1 2.4 2.6v6.3h2v-6.5c.1-2.6-1.4-4.4-3.9-4.4Zm11.2 9.1-3.6-8.9h-2.2l4.8 11.6c-.3.9-.7 1.2-1.7 1.2h-2.5v2h2.5c1.8 0 2.8-.8 3.5-2.6l4.7-12.2h-2.1l-3.4 8.9Z"/></svg>
